Electric Funeral Plane/scalable/apps/deluge.svg

<?xml version="1.0" encoding="UTF-8" standalone="no"?>
<!-- Generator: Adobe Illustrator 19.0.0, SVG Export Plug-In . SVG Version: 6.00 Build 0)  -->

<svg
   xmlns:dc="http://purl.org/dc/elements/1.1/"
   xmlns:cc="http://creativecommons.org/ns#"
   xmlns:rdf="http://www.w3.org/1999/02/22-rdf-syntax-ns#"
   xmlns:svg="http://www.w3.org/2000/svg"
   xmlns="http://www.w3.org/2000/svg"
   xmlns:xlink="http://www.w3.org/1999/xlink"
   xmlns:sodipodi="http://sodipodi.sourceforge.net/DTD/sodipodi-0.dtd"
   xmlns:inkscape="http://www.inkscape.org/namespaces/inkscape"
   version="1.1"
   id="Capa_1"
   x="0px"
   y="0px"
   viewBox="0 0 48 48"
   xml:space="preserve"
   sodipodi:docname="deluge.svg"
   width="48"
   height="48"
   inkscape:version="0.92.3 (2405546, 2018-03-11)"><metadata
   id="metadata41"><rdf:RDF><cc:Work
       rdf:about=""><dc:format>image/svg+xml</dc:format><dc:type
         rdf:resource="http://purl.org/dc/dcmitype/StillImage" /><dc:title /></cc:Work></rdf:RDF></metadata><defs
   id="defs39"><linearGradient
     inkscape:collect="always"
     id="linearGradient849"><stop
       style="stop-color:#165044;stop-opacity:1"
       offset="0"
       id="stop845" /><stop
       style="stop-color:#1b4075;stop-opacity:0;"
       offset="1"
       id="stop847" /></linearGradient><linearGradient
     inkscape:collect="always"
     id="linearGradient892"><stop
       style="stop-color:#000000;stop-opacity:1;"
       offset="0"
       id="stop888" /><stop
       style="stop-color:#000000;stop-opacity:0;"
       offset="1"
       id="stop890" /></linearGradient><linearGradient
     inkscape:collect="always"
     xlink:href="#linearGradient892"
     id="linearGradient894"
     x1="16.187868"
     y1="9.5649471"
     x2="40.95726"
     y2="35.729652"
     gradientUnits="userSpaceOnUse" /><linearGradient
     inkscape:collect="always"
     xlink:href="#linearGradient849"
     id="linearGradient851"
     x1="15.864861"
     y1="23.247058"
     x2="27.711608"
     y2="23.247058"
     gradientUnits="userSpaceOnUse" /></defs><sodipodi:namedview
   pagecolor="#ffffff"
   bordercolor="#666666"
   borderopacity="1"
   objecttolerance="10"
   gridtolerance="10"
   guidetolerance="10"
   inkscape:pageopacity="0"
   inkscape:pageshadow="2"
   inkscape:window-width="1366"
   inkscape:window-height="719"
   id="namedview37"
   showgrid="false"
   showguides="true"
   inkscape:guide-bbox="true"
   inkscape:zoom="1.8782524"
   inkscape:cx="24"
   inkscape:cy="24"
   inkscape:window-x="0"
   inkscape:window-y="25"
   inkscape:window-maximized="1"
   inkscape:current-layer="Capa_1" />


<g
   id="g6"
   transform="translate(0,-464)">
</g>
<g
   id="g8"
   transform="translate(0,-464)">
</g>
<g
   id="g10"
   transform="translate(0,-464)">
</g>
<g
   id="g12"
   transform="translate(0,-464)">
</g>
<g
   id="g14"
   transform="translate(0,-464)">
</g>
<g
   id="g16"
   transform="translate(0,-464)">
</g>
<g
   id="g18"
   transform="translate(0,-464)">
</g>
<g
   id="g20"
   transform="translate(0,-464)">
</g>
<g
   id="g22"
   transform="translate(0,-464)">
</g>
<g
   id="g24"
   transform="translate(0,-464)">
</g>
<g
   id="g26"
   transform="translate(0,-464)">
</g>
<g
   id="g28"
   transform="translate(0,-464)">
</g>
<g
   id="g30"
   transform="translate(0,-464)">
</g>
<g
   id="g32"
   transform="translate(0,-464)">
</g>
<g
   id="g34"
   transform="translate(0,-464)">
</g>
<g
   id="g858"><path
     id="path852"
     d="m 24.000976,0.3457035 c -5.833461,0 -10.522198,1.1203776 -13.935546,3.3320313 -4.1011933,2.6574037 -6.2695315,6.9015122 -6.2695315,12.2714832 0,7.226706 5.8062658,16.88549 7.5859375,19.673828 2.031747,3.183082 4.250107,6.079783 6.246093,8.15625 2.542362,2.644284 4.56815,3.875 6.373047,3.875 1.804991,0 3.829009,-1.230625 6.371093,-3.875 1.995894,-2.076376 4.214349,-4.973077 6.246094,-8.15625 C 38.397835,32.8348 44.204101,23.175924 44.204101,15.949219 44.204193,10.57934 42.037899,6.3352307 37.936523,3.6777348 34.523359,1.4660811 29.834346,0.3457035 24.000976,0.3457035 Z"
     style="fill:#165044;stroke-width:0.0924025"
     inkscape:connector-curvature="0" /><path
     inkscape:connector-curvature="0"
     id="path868"
     d="m 30.798828,43.222656 c 1.886066,-2.036619 3.92545,-4.633954 5.81836,-7.599609 0.889835,-1.394123 2.786911,-4.505287 4.460937,-8.171875 0.313283,-0.686179 0.530667,-1.442738 0.820313,-2.160156 L 23.765625,7.1542969 23.529297,11.576172 16.09375,28.517578 Z"
     style="fill:url(#linearGradient894);fill-opacity:1;stroke:none;stroke-width:1px;stroke-linecap:butt;stroke-linejoin:miter;stroke-opacity:1" /><path
     id="path850"
     d="M 23.763672,7.1542969 C 21.043996,10.961496 11.804118,21.697719 15.740234,27.904297 c 3.045742,4.801995 13.397853,4.826594 16.408204,0 3.916693,-6.279084 -6.067539,-16.942802 -8.382813,-20.7500001 z m 5.609375,14.3984371 a 2.661191,1.577002 82.043127 0 1 0.160156,0.0059 2.661191,1.577002 82.043127 0 1 1.71875,2.693359 2.661191,1.577002 82.043127 0 1 -1.308594,2.587891 2.661191,1.577002 82.043127 0 1 -1.845703,-2.439453 l -0.04297,-0.515625 a 2.661191,1.577002 82.043127 0 1 1.28125,-2.330078 2.661191,1.577002 82.043127 0 0 0.0039,0 2.661191,1.577002 82.043127 0 1 0.0332,-0.002 z"
     style="fill:#d7eef4;fill-opacity:1;stroke-width:0.0924025"
     inkscape:connector-curvature="0" /><path
     inkscape:connector-curvature="0"
     id="path918"
     d="m 3.923828,14.736328 c -0.02737,0.413032 -0.128906,0.785353 -0.128906,1.212891 0,7.226706 5.808218,16.885489 7.58789,19.673828 2.031746,3.183082 4.248155,6.079783 6.244141,8.15625 2.542362,2.644284 4.568149,3.875 6.373047,3.875 1.804991,0 3.829009,-1.230626 6.371094,-3.875 1.995894,-2.076377 4.214348,-4.973078 6.246094,-8.15625 1.779671,-2.788246 7.585937,-12.447125 7.585937,-19.673828 7e-6,-0.427554 -0.101563,-0.799843 -0.128906,-1.212891 -0.08351,1.592147 -0.311141,3.248005 -0.804688,4.94336 -0.572145,1.965341 -1.354393,3.93819 -2.191406,5.771484 -1.674026,3.666588 -3.571102,6.777752 -4.460937,8.171875 -2.031746,3.183172 -4.2502,6.079873 -6.246094,8.15625 -1.271043,1.322187 -2.411549,2.291484 -3.460938,2.929687 -1.049388,0.638204 -2.00766,0.945313 -2.910156,0.945313 -0.902449,0 -1.858349,-0.307098 -2.908203,-0.945313 C 20.041943,44.07077 18.898134,43.101439 17.626953,41.779297 15.630967,39.70283 13.41456,36.806129 11.382812,33.623047 10.492976,32.228877 8.5959,29.117748 6.921875,25.451172 6.084862,23.617884 5.302614,21.645022 4.730469,19.679688 4.236917,17.984324 4.00733,16.328486 3.923828,14.736328 Z"
     style="opacity:0.3;fill:#000000;stroke-width:0.0924025" /><path
     inkscape:connector-curvature="0"
     sodipodi:nodetypes="cscscc"
     id="path2969"
     d="m 27.048948,22.061525 c -2.536205,-5.891004 -7.251206,-3.794118 -7.369469,0.362486 -0.156878,5.514018 7.219709,4.791608 8.032129,6.522781 -3.261306,2.788451 -8.982897,1.688216 -10.640052,-0.78782 -1.654619,-2.472245 -1.53857,-6.327862 -0.07356,-9.042604 5.525736,-8.360352 11.967082,2.154733 10.050949,2.945157 z"
     style="fill:url(#linearGradient851);fill-opacity:1;fill-rule:evenodd;stroke:none;stroke-width:0.03241545px;stroke-linecap:butt;stroke-linejoin:miter;stroke-opacity:1" /></g></svg>

<?xml version="1.0" encoding="UTF-8" standalone="no"?>
<!-- Generator: Adobe Illustrator 19.0.0, SVG Export Plug-In . SVG Version: 6.00 Build 0)  -->

<svg
   xmlns:dc="http://purl.org/dc/elements/1.1/"
   xmlns:cc="http://creativecommons.org/ns#"
   xmlns:rdf="http://www.w3.org/1999/02/22-rdf-syntax-ns#"
   xmlns:svg="http://www.w3.org/2000/svg"
   xmlns="http://www.w3.org/2000/svg"
   xmlns:xlink="http://www.w3.org/1999/xlink"
   xmlns:sodipodi="http://sodipodi.sourceforge.net/DTD/sodipodi-0.dtd"
   xmlns:inkscape="http://www.inkscape.org/namespaces/inkscape"
   version="1.1"
   id="Capa_1"
   x="0px"
   y="0px"
   viewBox="0 0 48 48"
   xml:space="preserve"
   sodipodi:docname="deluge.svg"
   width="48"
   height="48"
   inkscape:version="0.92.3 (2405546, 2018-03-11)"><metadata
   id="metadata41"><rdf:RDF><cc:Work
       rdf:about=""><dc:format>image/svg+xml</dc:format><dc:type
         rdf:resource="http://purl.org/dc/dcmitype/StillImage" /><dc:title /></cc:Work></rdf:RDF></metadata><defs
   id="defs39"><linearGradient
     inkscape:collect="always"
     id="linearGradient892"><stop
       style="stop-color:#000000;stop-opacity:1;"
       offset="0"
       id="stop888" /><stop
       style="stop-color:#000000;stop-opacity:0;"
       offset="1"
       id="stop890" /></linearGradient><linearGradient
     inkscape:collect="always"
     xlink:href="#linearGradient892"
     id="linearGradient894"
     x1="16.187868"
     y1="9.5649471"
     x2="40.95726"
     y2="35.729652"
     gradientUnits="userSpaceOnUse" /></defs><sodipodi:namedview
   pagecolor="#ffffff"
   bordercolor="#666666"
   borderopacity="1"
   objecttolerance="10"
   gridtolerance="10"
   guidetolerance="10"
   inkscape:pageopacity="0"
   inkscape:pageshadow="2"
   inkscape:window-width="1366"
   inkscape:window-height="719"
   id="namedview37"
   showgrid="false"
   showguides="true"
   inkscape:guide-bbox="true"
   inkscape:zoom="1.8782524"
   inkscape:cx="24"
   inkscape:cy="24"
   inkscape:window-x="0"
   inkscape:window-y="25"
   inkscape:window-maximized="1"
   inkscape:current-layer="Capa_1" />


<g
   id="g6"
   transform="translate(0,-464)">
</g>
<g
   id="g8"
   transform="translate(0,-464)">
</g>
<g
   id="g10"
   transform="translate(0,-464)">
</g>
<g
   id="g12"
   transform="translate(0,-464)">
</g>
<g
   id="g14"
   transform="translate(0,-464)">
</g>
<g
   id="g16"
   transform="translate(0,-464)">
</g>
<g
   id="g18"
   transform="translate(0,-464)">
</g>
<g
   id="g20"
   transform="translate(0,-464)">
</g>
<g
   id="g22"
   transform="translate(0,-464)">
</g>
<g
   id="g24"
   transform="translate(0,-464)">
</g>
<g
   id="g26"
   transform="translate(0,-464)">
</g>
<g
   id="g28"
   transform="translate(0,-464)">
</g>
<g
   id="g30"
   transform="translate(0,-464)">
</g>
<g
   id="g32"
   transform="translate(0,-464)">
</g>
<g
   id="g34"
   transform="translate(0,-464)">
</g>
<g
   id="g925"><path
     id="path852"
     d="m 24.000976,0.3457035 c -5.833461,0 -10.522198,1.1203776 -13.935546,3.3320313 -4.1011933,2.6574037 -6.2695315,6.9015122 -6.2695315,12.2714832 0,7.226706 5.8062658,16.88549 7.5859375,19.673828 2.031747,3.183082 4.250107,6.079783 6.246093,8.15625 2.542362,2.644284 4.56815,3.875 6.373047,3.875 1.804991,0 3.829009,-1.230625 6.371093,-3.875 1.995894,-2.076376 4.214349,-4.973077 6.246094,-8.15625 C 38.397835,32.8348 44.204101,23.175924 44.204101,15.949219 44.204193,10.57934 42.037899,6.3352307 37.936523,3.6777348 34.523359,1.4660811 29.834346,0.3457035 24.000976,0.3457035 Z"
     style="fill:#165044;stroke-width:0.0924025" /><path
     inkscape:connector-curvature="0"
     id="path868"
     d="m 30.798828,43.222656 c 1.886066,-2.036619 3.92545,-4.633954 5.81836,-7.599609 0.889835,-1.394123 2.786911,-4.505287 4.460937,-8.171875 0.313283,-0.686179 0.530667,-1.442738 0.820313,-2.160156 L 23.765625,7.1542969 23.529297,11.576172 16.09375,28.517578 Z"
     style="fill:url(#linearGradient894);fill-opacity:1;stroke:none;stroke-width:1px;stroke-linecap:butt;stroke-linejoin:miter;stroke-opacity:1" /><path
     id="path850"
     d="M 23.763672 7.1542969 C 21.043996 10.961496 11.804118 21.697719 15.740234 27.904297 C 18.785976 32.706292 29.138087 32.730891 32.148438 27.904297 C 36.065131 21.625213 26.080899 10.961495 23.765625 7.1542969 L 23.763672 7.1542969 z M 29.373047 21.552734 A 2.661191 1.577002 82.043127 0 1 29.533203 21.558594 A 2.661191 1.577002 82.043127 0 1 31.251953 24.251953 A 2.661191 1.577002 82.043127 0 1 29.943359 26.839844 A 2.661191 1.577002 82.043127 0 1 28.097656 24.400391 L 28.054688 23.884766 A 2.661191 1.577002 82.043127 0 1 29.335938 21.554688 A 2.661191 1.577002 82.043127 0 0 29.339844 21.554688 A 2.661191 1.577002 82.043127 0 1 29.373047 21.552734 z "
     style="fill:#d7eef4;stroke-width:0.0924025;fill-opacity:1" /><path
     inkscape:connector-curvature="0"
     id="path918"
     d="m 3.923828,14.736328 c -0.02737,0.413032 -0.128906,0.785353 -0.128906,1.212891 0,7.226706 5.808218,16.885489 7.58789,19.673828 2.031746,3.183082 4.248155,6.079783 6.244141,8.15625 2.542362,2.644284 4.568149,3.875 6.373047,3.875 1.804991,0 3.829009,-1.230626 6.371094,-3.875 1.995894,-2.076377 4.214348,-4.973078 6.246094,-8.15625 1.779671,-2.788246 7.585937,-12.447125 7.585937,-19.673828 7e-6,-0.427554 -0.101563,-0.799843 -0.128906,-1.212891 -0.08351,1.592147 -0.311141,3.248005 -0.804688,4.94336 -0.572145,1.965341 -1.354393,3.93819 -2.191406,5.771484 -1.674026,3.666588 -3.571102,6.777752 -4.460937,8.171875 -2.031746,3.183172 -4.2502,6.079873 -6.246094,8.15625 -1.271043,1.322187 -2.411549,2.291484 -3.460938,2.929687 -1.049388,0.638204 -2.00766,0.945313 -2.910156,0.945313 -0.902449,0 -1.858349,-0.307098 -2.908203,-0.945313 C 20.041943,44.07077 18.898134,43.101439 17.626953,41.779297 15.630967,39.70283 13.41456,36.806129 11.382812,33.623047 10.492976,32.228877 8.5959,29.117748 6.921875,25.451172 6.084862,23.617884 5.302614,21.645022 4.730469,19.679688 4.236917,17.984324 4.00733,16.328486 3.923828,14.736328 Z"
     style="fill:#000000;stroke-width:0.0924025;opacity:0.3" /></g></svg>
